X:417
T:Le Lezard
Z:Jack Campin, http://www.campin.me.uk/
F:Jack Campin's Nine-Note Tunebook
% last edit 03-02-2013
S:http://accordeontab.canalblog.com
M:2/4
L:1/16
Q:1/4=120
K:AMin
G2ed c2GF|F2F2 F2de|B2B2 BAeB|c2Bc G4  |
G2ed c2GE|F2F2 F2dc|B2B2 BGed|c4   c4 :|
ABcd e2e2|e2dc A4  |BcBG B2B2|ABcB A2E2|
ABcd e2e2|e2dc A4  |BcBG B2B2|ABcd A4 :|

